SVG/wheelchair.svg

<?xml version="1.0" encoding="utf-8"?>
<!-- Generated by IcoMoon.io -->
<!DOCTYPE svg PUBLIC "-//W3C//DTD SVG 1.1//EN" "http://www.w3.org/Graphics/SVG/1.1/DTD/svg11.dtd">
<svg version="1.1" xmlns="http://www.w3.org/2000/svg" xmlns:xlink="http://www.w3.org/1999/xlink" width="13" height="14" viewBox="0 0 13 14">
<path fill="#444444" d="M7.992 9.273l0.797 1.594q-0.453 1.398-1.641 2.266t-2.648 0.867q-1.219 0-2.254-0.605t-1.641-1.641-0.605-2.254q0-1.414 0.816-2.578t2.145-1.648l0.133 1.023q-0.953 0.422-1.523 1.293t-0.57 1.91q0 1.445 1.027 2.473t2.473 1.027q0.984 0 1.816-0.508t1.289-1.371 0.387-1.848zM12.273 10.055l0.453 0.891-2 1q-0.102 0.055-0.227 0.055-0.312 0-0.445-0.273l-1.867-3.727h-3.687q-0.187 0-0.332-0.129t-0.168-0.316l-0.75-6.086q-0.016-0.125 0.047-0.328 0.109-0.398 0.445-0.645t0.758-0.246q0.516 0 0.883 0.367t0.367 0.883q0 0.539-0.406 0.918t-0.937 0.324l0.289 2.258h3.305v1h-3.18l0.125 1h3.555q0.312 0 0.445 0.273l1.781 3.555z"></path>
</svg>

<svg xmlns="http://www.w3.org/2000/svg" viewBox="0 0 13 14"><path d="M7.992 9.273l.797 1.594q-.456 1.398-1.644 2.266T4.5 14q-1.22 0-2.254-.605t-1.64-1.64T0 9.5q0-1.414.816-2.578T2.96 5.274l.134 1.023Q2.14 6.72 1.57 7.59T1 9.5q0 1.445 1.028 2.473T4.5 13q.985 0 1.817-.508t1.29-1.37.386-1.85zm4.28.782l.454.89-2 1Q10.624 12 10.5 12q-.314 0-.447-.27L8.187 8H4.5q-.187 0-.332-.128T4 7.556L3.25 1.47q-.016-.125.047-.328.11-.398.445-.645T4.5.25q.516 0 .883.368t.367.883q0 .54-.406.92t-.937.325L4.697 5H8v1H4.82l.126 1H8.5q.313 0 .446.274l1.78 3.555z" /></svg>
